src/22/actions/format-border-set-internal-vertical.svg

<svg xmlns="http://www.w3.org/2000/svg" viewBox="0 0 22 22"><defs id="defs3051"><style type="text/css" id="current-color-scheme">.ColorScheme-Text{color:#5d656b}</style></defs><path d="M3 2v17h17V2H3zm1 1h15v7H4V3zm0 8h15v7H4v-7z" class="ColorScheme-Text" fill="currentColor" fill-opacity=".1"/><path d="M4 3v7h7V3H4zm8 0v7h7V3h-7zm-8 8v7h7v-7H4zm8 0v7h7v-7h-7z" class="ColorScheme-Text" fill="currentColor" fill-opacity=".5"/><path d="M11 2v17h1V2h-1z" class="ColorScheme-Text" fill="currentColor"/></svg>

<svg xmlns="http://www.w3.org/2000/svg" viewBox="0 0 22 22">
  <defs id="defs3051">
    <style type="text/css" id="current-color-scheme">
      .ColorScheme-Text {
        color:#5d656b;
      }
      </style>
  </defs>
 <path 
     style="fill:currentColor;fill-opacity:0.1;stroke:none" 
     d="M 3 2 L 3 3 L 3 10 L 3 11 L 3 18 L 3 19 L 4 19 L 19 19 L 20 19 L 20 18 L 20 11 L 20 10 L 20 3 L 20 2 L 19 2 L 4 2 L 3 2 z M 4 3 L 19 3 L 19 10 L 4 10 L 4 3 z M 4 11 L 19 11 L 19 18 L 4 18 L 4 11 z "
     class="ColorScheme-Text"
     />
 <path 
     style="fill:currentColor;fill-opacity:0.5;stroke:none" 
     d="M 4 3 L 4 10 L 11 10 L 11 3 L 4 3 z M 12 3 L 12 10 L 19 10 L 19 3 L 12 3 z M 4 11 L 4 18 L 11 18 L 11 11 L 4 11 z M 12 11 L 12 18 L 19 18 L 19 11 L 12 11 z "
     class="ColorScheme-Text"
     />
 <path 
     style="fill:currentColor;fill-opacity:1.0;stroke:none" 
     d="M 11 2 L 11 19 L 12 19 L 12 2 L 11 2 z "
     class="ColorScheme-Text"
     />
</svg>
